X: 64
T: No_162_The_Sky_Replies.krn
N: Derived from No_162_The_Sky_Replies.krn
%%abc-version 2.0
%%abcx-abcm2ps-target-version 5.9.1 (29 Sep 2008)
%%abc-creator hum2abc beta
%%abcx-conversion-date 2019/03/15 08:29:13
%%humdrum-veritas 355714489
%%humdrum-veritas-data 1649768176
%%linebreak <none>
%%barnumbers 0
L: 1/8
M: 2/4
%%staves {1 2}
V: 1 clef=bass
V: 2 clef=bass
K: D
[V:1] [K:clef=bass][M:2/4]B,B, B,B, | 
[V:2] [K:clef=bass][M:2/4]z4 | 
[V:1] B,2F,F, ||  
[V:2] (3!accent!G,, z G,, (3!accent!G,, z G,, ||  
[V:1] [M:3/4]B,2B,B,B,2 ||  
[V:2] [M:3/4](3!accent!G,, z G,, (3!accent!G,, z G,, (3!accent!G,, z G,, ||  
[V:1] [M:2/4]B,C CB, | 
[V:2] [M:2/4]z4 | 
[V:1] F,2F,2 ||  
[V:2] z4 ||  
[V:1] [M:3/4]E,D,E,2E,2 ||  
[V:2] [M:3/4]z6 ||  
[V:1] [M:2/4]D,B,,D,2 | 
[V:2] [M:2/4]z4 | 
[V:1] D,2D,2 | 
[V:2] z4 | 
[V:1] F,2F,E, | 
[V:2] z4 | 
[V:1] D,2D,2 | 
[V:2] z4 | 
[V:1] B,,B,,B,,2 ||  
[V:2] z4 ||  
[V:1] [M:3/4]B,,6 | 
[V:2] [M:3/4]z6 | 
[V:1] B,,B, B,B, B,B, ||  
[V:2] z6 ||  
[V:1] [M:2/4]B,2F,2 ||  
[V:2] [M:2/4]z4 ||  
[V:1] [M:3/4]B,2B,B,B,2 ||  
[V:2] [M:3/4]z6 ||  
[V:1] [M:2/4]B,C CB, | 
[V:2] [M:2/4]z4 | 
[V:1] F,2F,2 ||  
[V:2] z4 ||  
[V:1] [M:3/4]E,D,E,2E,2 ||  
[V:2] [M:3/4]z6 ||  
[V:1] [M:2/4]D,B,,D,2 | 
[V:2] [M:2/4]z4 | 
[V:1] D,2D,2 | 
[V:2] z4 | 
[V:1] F,2F,E, | 
[V:2] z4 | 
[V:1] D,2D,2 | 
[V:2] z4 | 
[V:1] B,,B,,B,,2 | 
[V:2] z4 | 
[V:1] B,,3B,, | 
[V:2] z4 | 
[V:1] B,,4 |]  
[V:2] z4 |]  



